X: 12241
T: Fair-haired Lass, The
R: reel
M: 4/4
K: Amixolydian
|:eaag efgf|ea~a2 ABcd|eaag efge|afge d2cd:|
|:eA~A2 efgf|eA~A2 BAGB|AB=cd efge|afge d2cd:|

